report_00007_2020-12-11T15:55:29.892Z/network-rtt/samples/pages+cached+noexternal+nocss/raw/values.svg

<svg width="640" height="490" xmlns="http://www.w3.org/2000/svg" xmlns:xlink="http://www.w3.org/1999/xlink"><path fill="#fff" d="M0 0h640v490H0z"/><defs><path id="d" stroke-width=".222" stroke="currentColor" d="M-1-1h2v2h-2z"/><path id="b" stroke-width=".222" stroke="currentColor" d="M0-1.33l-1.33 2h2.66z"/><path id="f" stroke-width=".222" stroke="currentColor" d="M0 1.33L1.265.411.782-1.067l-1.564-.009-.483 1.487z"/><use xlink:href="#b" id="c" stroke="currentColor" transform="rotate(180)"/><use xlink:href="#d" id="e" stroke="currentColor" transform="rotate(45)"/><circle id="a" stroke-width=".222" stroke="currentColor" cx="0" cy="0" r="1"/></defs><g fill="none" color="#000" stroke="currentColor"><path stroke="#000" d="M62.2 407.3h9m543.8 0h-9"/><text transform="translate(53.9 411.2)" stroke="none" fill="#000" font-family="Arial" font-size="12" text-anchor="end"><tspan>0.05</tspan></text></g><g fill="none" color="#000" stroke="currentColor"><path stroke="#000" d="M62.2 327.9h9m543.8 0h-9"/><text transform="translate(53.9 331.8)" stroke="none" fill="#000" font-family="Arial" font-size="12" text-anchor="end"><tspan>0.06</tspan></text></g><g fill="none" color="#000" stroke="currentColor"><path stroke="#000" d="M62.2 248.5h9m543.8 0h-9"/><text transform="translate(53.9 252.4)" stroke="none" fill="#000" font-family="Arial" font-size="12" text-anchor="end"><tspan>0.07</tspan></text></g><g fill="none" color="#000" stroke="currentColor"><path stroke="#000" d="M62.2 169.1h9m543.8 0h-9"/><text transform="translate(53.9 173)" stroke="none" fill="#000" font-family="Arial" font-size="12" text-anchor="end"><tspan>0.08</tspan></text></g><g fill="none" color="#000" stroke="currentColor"><path stroke="#000" d="M62.2 89.7h9m543.8 0h-9"/><text transform="translate(53.9 93.6)" stroke="none" fill="#000" font-family="Arial" font-size="12" text-anchor="end"><tspan>0.09</tspan></text></g><g fill="none" color="#000" stroke="currentColor"><path stroke="#000" d="M62.2 436v-9m0-408.9v9"/><text transform="translate(62.2 457.9)" stroke="none" fill="#000" font-family="Arial" font-size="12" text-anchor="middle"><tspan>0</tspan></text></g><g fill="none" color="#000" stroke="currentColor"><path stroke="#000" d="M118 436v-9m0-408.9v9"/><text transform="translate(118 457.9)" stroke="none" fill="#000" font-family="Arial" font-size="12" text-anchor="middle"><tspan>10</tspan></text></g><g fill="none" color="#000" stroke="currentColor"><path stroke="#000" d="M173.9 436v-9m0-408.9v9"/><text transform="translate(173.9 457.9)" stroke="none" fill="#000" font-family="Arial" font-size="12" text-anchor="middle"><tspan>20</tspan></text></g><g fill="none" color="#000" stroke="currentColor"><path stroke="#000" d="M229.7 436v-9m0-408.9v9"/><text transform="translate(229.7 457.9)" stroke="none" fill="#000" font-family="Arial" font-size="12" text-anchor="middle"><tspan>30</tspan></text></g><g fill="none" color="#000" stroke="currentColor"><path stroke="#000" d="M285.6 436v-9m0-408.9v9"/><text transform="translate(285.6 457.9)" stroke="none" fill="#000" font-family="Arial" font-size="12" text-anchor="middle"><tspan>40</tspan></text></g><g fill="none" color="#000" stroke="currentColor"><path stroke="#000" d="M341.4 436v-9m0-408.9v9"/><text transform="translate(341.4 457.9)" stroke="none" fill="#000" font-family="Arial" font-size="12" text-anchor="middle"><tspan>50</tspan></text></g><g fill="none" color="#000" stroke="currentColor"><path stroke="#000" d="M397.2 436v-9m0-408.9v9"/><text transform="translate(397.2 457.9)" stroke="none" fill="#000" font-family="Arial" font-size="12" text-anchor="middle"><tspan>60</tspan></text></g><g fill="none" color="#000" stroke="currentColor"><path stroke="#000" d="M453.1 436v-9m0-408.9v9"/><text transform="translate(453.1 457.9)" stroke="none" fill="#000" font-family="Arial" font-size="12" text-anchor="middle"><tspan>70</tspan></text></g><g fill="none" color="#000" stroke="currentColor"><path stroke="#000" d="M508.9 436v-9m0-408.9v9"/><text transform="translate(508.9 457.9)" stroke="none" fill="#000" font-family="Arial" font-size="12" text-anchor="middle"><tspan>80</tspan></text></g><g fill="none" color="#000" stroke="currentColor"><path stroke="#000" d="M564.7 436v-9m0-408.9v9"/><text transform="translate(564.7 457.9)" stroke="none" fill="#000" font-family="Arial" font-size="12" text-anchor="middle"><tspan>90</tspan></text></g><path stroke="#000" d="M62.2 18.1V436H615V18.1H62.2z" fill="none" color="#000"/><text transform="translate(321.6 475.9)" stroke="none" fill="#000" font-family="Arial" font-size="12" text-anchor="end" color="#000"><tspan>raw</tspan></text><path stroke="#9400D3" d="M329.9 472h42.2M62.2 391.4L67.8 181l5.6 65.9 5.6-75.4 5.5 169.1 5.6-143.7 5.6 36.5 5.6 161.2 5.6-368.5 5.6 225.6 5.5 16.6 5.6 17.5 5.6 87.4 5.6-111.2 5.6 135.8 5.6-40.5 5.5-48.5 5.6-40.5 5.6 93 5.6.8 5.6 4.7 5.6-185.8 5.5 166.8 5.6-132.7 5.6 67.5 5.6 130.3 5.6-278 5.6 136.6 5.5 27 5.6 78.6 5.6-256.5 5.6 54 5.6 231.1 5.6-107.2 5.6-62.7 5.5 100.8 5.6-177.1 5.6 124.7 5.6-23.8 5.6 1.6 5.6-1.6 5.5-46.1 5.6 19.1 5.6 1.6 5.6 137.4 5.6-4 5.6-63.5 5.5-114.4h5.6l5.6 217.6 5.6-45.3 5.6 33.4 5.6-246.2 5.5 98.5 5.6-116.7 5.6 290.6 5.6-98.5 5.6-235.8 5.6 177.1 5.5 92.1 5.6-134.2 5.6 61.1 5.6 50.1 5.6-37.4 5.6-62.7 5.5 4 5.6 105.6 5.6 7.9 5.6-131 5.6 103.2 5.6 83.4 5.6-177.1 5.5 2.4 5.6-71.5 5.6 61.2 5.6-27 5.6-94.5 5.6 177.9 5.5-5.6 5.6-77 5.6-62.8 5.6 54 5.6 123.1 5.6-38.9 5.5 21.5 5.6-182.7 5.6 77 5.6 179.5 5.6-3.2 5.6 64.4 5.5-239.9 5.6-5.5 5.6 53.2 5.6 182.6 5.6-157.2 5.6 115.1 5.5-43.6 5.6-196.2 5.6 159.6 5.6-1.5" fill="none" color="#000"/><g fill="none" color="#000" stroke="currentColor"><path stroke="#000" d="M62.2 18.1V436H615V18.1H62.2z"/></g></svg>

<?xml version="1.0" encoding="utf-8"  standalone="no"?>
<svg 
 width="640" height="490"
 viewBox="0 0 640 490"
 xmlns="http://www.w3.org/2000/svg"
 xmlns:xlink="http://www.w3.org/1999/xlink"
>

<title>Gnuplot</title>
<desc>Produced by GNUPLOT 5.4 patchlevel 0 </desc>

<g id="gnuplot_canvas">

<rect x="0" y="0" width="640" height="490" fill="#ffffff"/>
<defs>

	<circle id='gpDot' r='0.5' stroke-width='0.5' stroke='currentColor'/>
	<path id='gpPt0' stroke-width='0.222' stroke='currentColor' d='M-1,0 h2 M0,-1 v2'/>
	<path id='gpPt1' stroke-width='0.222' stroke='currentColor' d='M-1,-1 L1,1 M1,-1 L-1,1'/>
	<path id='gpPt2' stroke-width='0.222' stroke='currentColor' d='M-1,0 L1,0 M0,-1 L0,1 M-1,-1 L1,1 M-1,1 L1,-1'/>
	<rect id='gpPt3' stroke-width='0.222' stroke='currentColor' x='-1' y='-1' width='2' height='2'/>
	<rect id='gpPt4' stroke-width='0.222' stroke='currentColor' fill='currentColor' x='-1' y='-1' width='2' height='2'/>
	<circle id='gpPt5' stroke-width='0.222' stroke='currentColor' cx='0' cy='0' r='1'/>
	<use xlink:href='#gpPt5' id='gpPt6' fill='currentColor' stroke='none'/>
	<path id='gpPt7' stroke-width='0.222' stroke='currentColor' d='M0,-1.33 L-1.33,0.67 L1.33,0.67 z'/>
	<use xlink:href='#gpPt7' id='gpPt8' fill='currentColor' stroke='none'/>
	<use xlink:href='#gpPt7' id='gpPt9' stroke='currentColor' transform='rotate(180)'/>
	<use xlink:href='#gpPt9' id='gpPt10' fill='currentColor' stroke='none'/>
	<use xlink:href='#gpPt3' id='gpPt11' stroke='currentColor' transform='rotate(45)'/>
	<use xlink:href='#gpPt11' id='gpPt12' fill='currentColor' stroke='none'/>
	<path id='gpPt13' stroke-width='0.222' stroke='currentColor' d='M0,1.330 L1.265,0.411 L0.782,-1.067 L-0.782,-1.076 L-1.265,0.411 z'/>
	<use xlink:href='#gpPt13' id='gpPt14' fill='currentColor' stroke='none'/>
	<filter id='textbox' filterUnits='objectBoundingBox' x='0' y='0' height='1' width='1'>
	  <feFlood flood-color='#FFFFFF' flood-opacity='1' result='bgnd'/>
	  <feComposite in='SourceGraphic' in2='bgnd' operator='atop'/>
	</filter>
	<filter id='greybox' filterUnits='objectBoundingBox' x='0' y='0' height='1' width='1'>
	  <feFlood flood-color='lightgrey' flood-opacity='1' result='grey'/>
	  <feComposite in='SourceGraphic' in2='grey' operator='atop'/>
	</filter>
</defs>
<g fill="none" color="#FFFFFF" stroke="black" stroke-width="1.00" stroke-linecap="butt" stroke-linejoin="miter">
</g>
<g fill="none" color="black" stroke="currentColor" stroke-width="1.00" stroke-linecap="butt" stroke-linejoin="miter">
	<path stroke='black'  d='M62.2,407.3 L71.2,407.3 M615.0,407.3 L606.0,407.3  '/>	<g transform="translate(53.9,411.2)" stroke="none" fill="black" font-family="Arial" font-size="12.00"  text-anchor="end">
		<text><tspan font-family="Arial" > 0.05</tspan></text>
	</g>
</g>
<g fill="none" color="black" stroke="currentColor" stroke-width="1.00" stroke-linecap="butt" stroke-linejoin="miter">
	<path stroke='black'  d='M62.2,327.9 L71.2,327.9 M615.0,327.9 L606.0,327.9  '/>	<g transform="translate(53.9,331.8)" stroke="none" fill="black" font-family="Arial" font-size="12.00"  text-anchor="end">
		<text><tspan font-family="Arial" > 0.06</tspan></text>
	</g>
</g>
<g fill="none" color="black" stroke="currentColor" stroke-width="1.00" stroke-linecap="butt" stroke-linejoin="miter">
	<path stroke='black'  d='M62.2,248.5 L71.2,248.5 M615.0,248.5 L606.0,248.5  '/>	<g transform="translate(53.9,252.4)" stroke="none" fill="black" font-family="Arial" font-size="12.00"  text-anchor="end">
		<text><tspan font-family="Arial" > 0.07</tspan></text>
	</g>
</g>
<g fill="none" color="black" stroke="currentColor" stroke-width="1.00" stroke-linecap="butt" stroke-linejoin="miter">
	<path stroke='black'  d='M62.2,169.1 L71.2,169.1 M615.0,169.1 L606.0,169.1  '/>	<g transform="translate(53.9,173.0)" stroke="none" fill="black" font-family="Arial" font-size="12.00"  text-anchor="end">
		<text><tspan font-family="Arial" > 0.08</tspan></text>
	</g>
</g>
<g fill="none" color="black" stroke="currentColor" stroke-width="1.00" stroke-linecap="butt" stroke-linejoin="miter">
	<path stroke='black'  d='M62.2,89.7 L71.2,89.7 M615.0,89.7 L606.0,89.7  '/>	<g transform="translate(53.9,93.6)" stroke="none" fill="black" font-family="Arial" font-size="12.00"  text-anchor="end">
		<text><tspan font-family="Arial" > 0.09</tspan></text>
	</g>
</g>
<g fill="none" color="black" stroke="currentColor" stroke-width="1.00" stroke-linecap="butt" stroke-linejoin="miter">
	<path stroke='black'  d='M62.2,436.0 L62.2,427.0 M62.2,18.1 L62.2,27.1  '/>	<g transform="translate(62.2,457.9)" stroke="none" fill="black" font-family="Arial" font-size="12.00"  text-anchor="middle">
		<text><tspan font-family="Arial" > 0</tspan></text>
	</g>
</g>
<g fill="none" color="black" stroke="currentColor" stroke-width="1.00" stroke-linecap="butt" stroke-linejoin="miter">
	<path stroke='black'  d='M118.0,436.0 L118.0,427.0 M118.0,18.1 L118.0,27.1  '/>	<g transform="translate(118.0,457.9)" stroke="none" fill="black" font-family="Arial" font-size="12.00"  text-anchor="middle">
		<text><tspan font-family="Arial" > 10</tspan></text>
	</g>
</g>
<g fill="none" color="black" stroke="currentColor" stroke-width="1.00" stroke-linecap="butt" stroke-linejoin="miter">
	<path stroke='black'  d='M173.9,436.0 L173.9,427.0 M173.9,18.1 L173.9,27.1  '/>	<g transform="translate(173.9,457.9)" stroke="none" fill="black" font-family="Arial" font-size="12.00"  text-anchor="middle">
		<text><tspan font-family="Arial" > 20</tspan></text>
	</g>
</g>
<g fill="none" color="black" stroke="currentColor" stroke-width="1.00" stroke-linecap="butt" stroke-linejoin="miter">
	<path stroke='black'  d='M229.7,436.0 L229.7,427.0 M229.7,18.1 L229.7,27.1  '/>	<g transform="translate(229.7,457.9)" stroke="none" fill="black" font-family="Arial" font-size="12.00"  text-anchor="middle">
		<text><tspan font-family="Arial" > 30</tspan></text>
	</g>
</g>
<g fill="none" color="black" stroke="currentColor" stroke-width="1.00" stroke-linecap="butt" stroke-linejoin="miter">
	<path stroke='black'  d='M285.6,436.0 L285.6,427.0 M285.6,18.1 L285.6,27.1  '/>	<g transform="translate(285.6,457.9)" stroke="none" fill="black" font-family="Arial" font-size="12.00"  text-anchor="middle">
		<text><tspan font-family="Arial" > 40</tspan></text>
	</g>
</g>
<g fill="none" color="black" stroke="currentColor" stroke-width="1.00" stroke-linecap="butt" stroke-linejoin="miter">
	<path stroke='black'  d='M341.4,436.0 L341.4,427.0 M341.4,18.1 L341.4,27.1  '/>	<g transform="translate(341.4,457.9)" stroke="none" fill="black" font-family="Arial" font-size="12.00"  text-anchor="middle">
		<text><tspan font-family="Arial" > 50</tspan></text>
	</g>
</g>
<g fill="none" color="black" stroke="currentColor" stroke-width="1.00" stroke-linecap="butt" stroke-linejoin="miter">
	<path stroke='black'  d='M397.2,436.0 L397.2,427.0 M397.2,18.1 L397.2,27.1  '/>	<g transform="translate(397.2,457.9)" stroke="none" fill="black" font-family="Arial" font-size="12.00"  text-anchor="middle">
		<text><tspan font-family="Arial" > 60</tspan></text>
	</g>
</g>
<g fill="none" color="black" stroke="currentColor" stroke-width="1.00" stroke-linecap="butt" stroke-linejoin="miter">
	<path stroke='black'  d='M453.1,436.0 L453.1,427.0 M453.1,18.1 L453.1,27.1  '/>	<g transform="translate(453.1,457.9)" stroke="none" fill="black" font-family="Arial" font-size="12.00"  text-anchor="middle">
		<text><tspan font-family="Arial" > 70</tspan></text>
	</g>
</g>
<g fill="none" color="black" stroke="currentColor" stroke-width="1.00" stroke-linecap="butt" stroke-linejoin="miter">
	<path stroke='black'  d='M508.9,436.0 L508.9,427.0 M508.9,18.1 L508.9,27.1  '/>	<g transform="translate(508.9,457.9)" stroke="none" fill="black" font-family="Arial" font-size="12.00"  text-anchor="middle">
		<text><tspan font-family="Arial" > 80</tspan></text>
	</g>
</g>
<g fill="none" color="black" stroke="currentColor" stroke-width="1.00" stroke-linecap="butt" stroke-linejoin="miter">
	<path stroke='black'  d='M564.7,436.0 L564.7,427.0 M564.7,18.1 L564.7,27.1  '/>	<g transform="translate(564.7,457.9)" stroke="none" fill="black" font-family="Arial" font-size="12.00"  text-anchor="middle">
		<text><tspan font-family="Arial" > 90</tspan></text>
	</g>
</g>
<g fill="none" color="black" stroke="currentColor" stroke-width="1.00" stroke-linecap="butt" stroke-linejoin="miter">
</g>
<g fill="none" color="black" stroke="currentColor" stroke-width="1.00" stroke-linecap="butt" stroke-linejoin="miter">
	<path stroke='black'  d='M62.2,18.1 L62.2,436.0 L615.0,436.0 L615.0,18.1 L62.2,18.1 Z  '/></g>
<g fill="none" color="black" stroke="currentColor" stroke-width="1.00" stroke-linecap="butt" stroke-linejoin="miter">
</g>
	<g id="gnuplot_plot_1" ><title>raw</title>
<g fill="none" color="black" stroke="currentColor" stroke-width="1.00" stroke-linecap="butt" stroke-linejoin="miter">
	<g transform="translate(321.6,475.9)" stroke="none" fill="black" font-family="Arial" font-size="12.00"  text-anchor="end">
		<text><tspan font-family="Arial" >raw</tspan></text>
	</g>
</g>
<g fill="none" color="black" stroke="currentColor" stroke-width="1.00" stroke-linecap="butt" stroke-linejoin="miter">
	<path stroke='rgb(148,   0, 211)'  d='M329.9,472.0 L372.1,472.0 M62.2,391.4 L67.8,181.0 L73.4,246.9 L79.0,171.5 L84.5,340.6 L90.1,196.9
		L95.7,233.4 L101.3,394.6 L106.9,26.1 L112.5,251.7 L118.0,268.3 L123.6,285.8 L129.2,373.2 L134.8,262.0
		L140.4,397.8 L146.0,357.3 L151.5,308.8 L157.1,268.3 L162.7,361.3 L168.3,362.1 L173.9,366.8 L179.5,181.0
		L185.0,347.8 L190.6,215.1 L196.2,282.6 L201.8,412.9 L207.4,134.9 L213.0,271.5 L218.5,298.5 L224.1,377.1
		L229.7,120.6 L235.3,174.6 L240.9,405.7 L246.5,298.5 L252.1,235.8 L257.6,336.6 L263.2,159.5 L268.8,284.2
		L274.4,260.4 L280.0,262.0 L285.6,260.4 L291.1,214.3 L296.7,233.4 L302.3,235.0 L307.9,372.4 L313.5,368.4
		L319.1,304.9 L324.6,190.5 L330.2,190.5 L335.8,408.1 L341.4,362.8 L347.0,396.2 L352.6,150.0 L358.1,248.5
		L363.7,131.8 L369.3,422.4 L374.9,323.9 L380.5,88.1 L386.1,265.2 L391.6,357.3 L397.2,223.1 L402.8,284.2
		L408.4,334.3 L414.0,296.9 L419.6,234.2 L425.1,238.2 L430.7,343.8 L436.3,351.7 L441.9,220.7 L447.5,323.9
		L453.1,407.3 L458.7,230.2 L464.2,232.6 L469.8,161.1 L475.4,222.3 L481.0,195.3 L486.6,100.8 L492.2,278.7
		L497.7,273.1 L503.3,196.1 L508.9,133.3 L514.5,187.3 L520.1,310.4 L525.7,271.5 L531.2,293.0 L536.8,110.3
		L542.4,187.3 L548.0,366.8 L553.6,363.6 L559.2,428.0 L564.7,188.1 L570.3,182.6 L575.9,235.8 L581.5,418.4
		L587.1,261.2 L592.7,376.3 L598.2,332.7 L603.8,136.5 L609.4,296.1 L615.0,294.6  '/></g>
	</g>
<g fill="none" color="#FFFFFF" stroke="rgb(148,   0, 211)" stroke-width="2.00" stroke-linecap="butt" stroke-linejoin="miter">
</g>
<g fill="none" color="black" stroke="currentColor" stroke-width="2.00" stroke-linecap="butt" stroke-linejoin="miter">
</g>
<g fill="none" color="black" stroke="black" stroke-width="1.00" stroke-linecap="butt" stroke-linejoin="miter">
</g>
<g fill="none" color="black" stroke="currentColor" stroke-width="1.00" stroke-linecap="butt" stroke-linejoin="miter">
	<path stroke='black'  d='M62.2,18.1 L62.2,436.0 L615.0,436.0 L615.0,18.1 L62.2,18.1 Z  '/></g>
<g fill="none" color="black" stroke="currentColor" stroke-width="1.00" stroke-linecap="butt" stroke-linejoin="miter">
</g>
</g>
</svg>
